X:8018
T:Jimmy Duffy's Barndance No.2 
R:Barndance
S:
H:
N:
D:Dog Big & Dog Little
Z:Adrian Scahill
M:4/4
L:1/8
K:G 
b2ba g2ge|dBGA B3A|GABc defg|agfe d3f|\
g2ba g2ge|dBGA B3A|Ggfe (3dcB (3cBA|G2F2 G4:||\
e2e2 d2B2|G2GE G3D|GABc defg|agfe d3d|\
edge d3B|GAGE G3D|GABc defg|a2d2 g4:||


